X:309
T: ES GING EIN JAEGER SPAZIEREN
N: E1459
O: Europa, Mitteleuropa, Deutschland, Schlesien, Oppeln
R: Staende -, Jaeger - Lied
M: 2/4
L: 1/16
K: A
E2 | A2A2B2B2 | c4c2
B2 | A2ABc2B2 | A4z2
E2 | A2A2B2B2 | c4c2
B2 | A2ABc2B2 | A4z2
AB | c2c2e2ed | c4B2
B2 | A2e2BAB2 | c4z2
cB | A2A2B2B2 | c4c2
B2 | A2ABc2B2 | A4
B4 | cec2BAB2 | A4z2

@@@ Tune index: 4993
